fs/scan_thumb_up_24_filled.svg

<svg viewBox="0 0 24 24" fill="none" xmlns="http://www.w3.org/2000/svg" height="1em" width="1em">
  <path d="M3.5 5.25C3.5 4.2835 4.2835 3.5 5.25 3.5H8.25C8.66421 3.5 9 3.16421 9 2.75C9 2.33579 8.66421 2 8.25 2H5.25C3.45507 2 2 3.45507 2 5.25V8.25C2 8.66421 2.33579 9 2.75 9C3.16421 9 3.5 8.66421 3.5 8.25V5.25ZM20.5 5.25C20.5 4.2835 19.7165 3.5 18.75 3.5H15.75C15.3358 3.5 15 3.16421 15 2.75C15 2.33579 15.3358 2 15.75 2H18.75C20.5449 2 22 3.45507 22 5.25V8.25C22 8.66421 21.6642 9 21.25 9C20.8358 9 20.5 8.66421 20.5 8.25V5.25ZM5.25 20.5C4.2835 20.5 3.5 19.7165 3.5 18.75V15.75C3.5 15.3358 3.16421 15 2.75 15C2.33579 15 2 15.3358 2 15.75V18.75C2 20.5449 3.45507 22 5.25 22H8.25C8.66421 22 9 21.6642 9 21.25C9 20.8358 8.66421 20.5 8.25 20.5H5.25ZM20.5 18.75C20.5 19.7165 19.7165 20.5 18.75 20.5H15.75C15.3358 20.5 15 20.8358 15 21.25C15 21.6642 15.3358 22 15.75 22H18.75C20.5449 22 22 20.5449 22 18.75V15.75C22 15.3358 21.6642 15 21.25 15C20.8358 15 20.5 15.3358 20.5 15.75V18.75ZM11.2893 6.42443C11.5541 5.80875 12.353 5.01977 13.4686 5.30926C14.1689 5.49097 14.673 5.91031 14.9577 6.48687C15.2056 6.98912 15.2488 7.53737 15.2574 7.95324C15.2656 8.35004 15.2018 8.78147 15.1201 9.1673H15.314C16.8715 9.1673 18.1361 10.6 17.646 12.1584L16.4968 15.8123C16.0306 17.2945 14.3968 18.0623 12.9186 17.6288L8.40692 16.3057C7.70619 16.1002 7.12335 15.5979 6.84997 14.9187L6.41194 13.8302C5.97322 12.7401 6.45244 11.5441 7.46691 10.9854L9.00926 10.1358C9.01671 10.1303 9.02669 10.1227 9.03901 10.113C9.09004 10.0726 9.18198 9.99414 9.30196 9.86779C9.54095 9.61612 9.89773 9.16758 10.2644 8.43916C10.4416 8.08696 10.5909 7.80987 10.7227 7.56523L10.7236 7.56346C10.9364 7.16847 11.1007 6.86292 11.2893 6.42443Z" fill="#212121"/>
</svg>

<svg viewBox="0 0 24 24" fill="none" xmlns="http://www.w3.org/2000/svg" height="1em" width="1em">
  <path d="M3.5 5.25c0-.966.784-1.75 1.75-1.75h3a.75.75 0 0 0 0-1.5h-3A3.25 3.25 0 0 0 2 5.25v3a.75.75 0 0 0 1.5 0v-3Zm17 0a1.75 1.75 0 0 0-1.75-1.75h-3a.75.75 0 0 1 0-1.5h3A3.25 3.25 0 0 1 22 5.25v3a.75.75 0 0 1-1.5 0v-3ZM5.25 20.5a1.75 1.75 0 0 1-1.75-1.75v-3a.75.75 0 0 0-1.5 0v3A3.25 3.25 0 0 0 5.25 22h3a.75.75 0 0 0 0-1.5h-3Zm15.25-1.75a1.75 1.75 0 0 1-1.75 1.75h-3a.75.75 0 0 0 0 1.5h3A3.25 3.25 0 0 0 22 18.75v-3a.75.75 0 0 0-1.5 0v3ZM11.29 6.424c.264-.615 1.063-1.404 2.179-1.115.7.182 1.204.601 1.489 1.178.248.502.29 1.05.3 1.466.008.397-.056.828-.138 1.214h.194c1.558 0 2.822 1.433 2.332 2.991l-1.15 3.654c-.465 1.482-2.1 2.25-3.577 1.817l-4.512-1.323a2.391 2.391 0 0 1-1.557-1.387l-.438-1.089c-.439-1.09.04-2.286 1.055-2.845l1.542-.85a2.584 2.584 0 0 0 .293-.268c.239-.25.596-.7.962-1.428.178-.352.327-.63.459-.874v-.002c.213-.395.378-.7.566-1.139Z" fill="#212121"/>
</svg>
